X: 1
T: Rally 'Round the Flag
P: piffero primo a0740
O: George F. Root
%R: march
F: http://ancients.sudburymuster.org/mus/sng/pdf/rallyC0.pdf
Z: 2020 John Chambers <jc:trillian.mit.edu>
M: 2/4
L: 1/16
K: D
de |\
f2f2 f3e | d4 B3c | d2d2 d3c | B8 |\
A4 A3G | F2A2 d3e | (f8 | e4) d3e |\
f2f2 f3e | d4 B3c |
d2d2 d3c | B4 |\
A4 A3G | F2A2 d2f2 | (e8 | d4) z2 ||\
a2 |\
a4 f3g | a2 b4 a2 | a4 f3g | a8 |\
aa3 f3g |
a2 b4 a2 | a4 f3d | e4 d3e |\
f2f2 f3e | d4 B3c | d2d2 d3c | B8 |\
A4 A3G | F2A2 d2f2 | (d8 | d4) z2 |]
